icons/svg/entertainment/love_hotel.svg

<?xml version="1.0" encoding="UTF-8" standalone="no"?>
<!-- Created with Inkscape (http://www.inkscape.org/) -->

<svg
   xmlns:dc="http://purl.org/dc/elements/1.1/"
   xmlns:cc="http://creativecommons.org/ns#"
   xmlns:rdf="http://www.w3.org/1999/02/22-rdf-syntax-ns#"
   xmlns:svg="http://www.w3.org/2000/svg"
   xmlns="http://www.w3.org/2000/svg"
   xmlns:sodipodi="http://sodipodi.sourceforge.net/DTD/sodipodi-0.dtd"
   xmlns:inkscape="http://www.inkscape.org/namespaces/inkscape"
   version="1.0"
   width="580"
   height="580"
   id="svg2"
   sodipodi:version="0.32"
   inkscape:version="0.91 r"
   sodipodi:docname="love_hotel.svg"
   inkscape:output_extension="org.inkscape.output.svg.inkscape">
  <metadata
     id="metadata2975">
    <rdf:RDF>
      <cc:Work
         rdf:about="">
        <dc:format>image/svg+xml</dc:format>
        <dc:type
           rdf:resource="http://purl.org/dc/dcmitype/StillImage" />
        <cc:license
           rdf:resource="http://web.resource.org/cc/PublicDomain" />
        <dc:language>en</dc:language>
      </cc:Work>
    </rdf:RDF>
  </metadata>
  <sodipodi:namedview
     inkscape:window-height="1004"
     inkscape:window-width="1920"
     inkscape:pageshadow="2"
     inkscape:pageopacity="0.0"
     guidetolerance="10.0"
     gridtolerance="10.0"
     objecttolerance="10.0"
     borderopacity="1.0"
     bordercolor="#666666"
     pagecolor="#ffffff"
     id="base"
     inkscape:zoom="0.65172416"
     inkscape:cx="372.71729"
     inkscape:cy="329.27906"
     inkscape:window-x="1680"
     inkscape:window-y="0"
     inkscape:current-layer="svg2"
     showgrid="false"
     inkscape:window-maximized="1"
     inkscape:object-paths="true"
     inkscape:snap-intersection-paths="true"
     inkscape:snap-smooth-nodes="true"
     inkscape:object-nodes="true"
     inkscape:snap-global="false" />
  <defs
     id="defs4">
    <inkscape:perspective
       sodipodi:type="inkscape:persp3d"
       inkscape:vp_x="0 : 290 : 1"
       inkscape:vp_y="0 : 1000 : 0"
       inkscape:vp_z="580 : 290 : 1"
       inkscape:persp3d-origin="290 : 193.33333 : 1"
       id="perspective2441" />
    <inkscape:perspective
       id="perspective3452"
       inkscape:persp3d-origin="30 : 20 : 1"
       inkscape:vp_z="60 : 30 : 1"
       inkscape:vp_y="0 : 1000 : 0"
       inkscape:vp_x="0 : 30 : 1"
       sodipodi:type="inkscape:persp3d" />
    <symbol
       viewBox="244.5 110 489 219.9"
       id="symbol-university">
      <path
         id="path4460"
         d="M79,43l57,119c0,0,21-96,104-96s124,106,124,106l43-133l82-17L0,17L79,43z" />
      <path
         id="path4462"
         d="M94,176l-21,39"
         stroke-width="20"
         stroke="#000000"
         fill="none" />
      <path
         id="path4464"
         d="M300,19c0,10.5-22.6,19-50.5,19S199,29.5,199,19s22.6-19,50.5-19S300,8.5,300,19z" />
      <path
         id="path4466"
         d="M112,216l-16-38L64,88c0,0-9-8-4-35s16-24,16-24"
         stroke-width="20"
         stroke="#000000"
         ill="none" />
    </symbol>
    <inkscape:perspective
       id="perspective4471"
       inkscape:persp3d-origin="372.04724 : 350.78739 : 1"
       inkscape:vp_z="744.09448 : 526.18109 : 1"
       inkscape:vp_y="0 : 1000 : 0"
       inkscape:vp_x="0 : 526.18109 : 1"
       sodipodi:type="inkscape:persp3d" />
    <inkscape:perspective
       id="perspective4668"
       inkscape:persp3d-origin="6 : 4 : 1"
       inkscape:vp_z="12 : 6 : 1"
       inkscape:vp_y="0 : 1000 : 0"
       inkscape:vp_x="0 : 6 : 1"
       sodipodi:type="inkscape:persp3d" />
    <inkscape:perspective
       id="perspective4904"
       inkscape:persp3d-origin="16 : 10.666667 : 1"
       inkscape:vp_z="32 : 16 : 1"
       inkscape:vp_y="0 : 1000 : 0"
       inkscape:vp_x="0 : 16 : 1"
       sodipodi:type="inkscape:persp3d" />
  </defs>
  <g
     id="g1327">
    <path
       d="M 66.275,1.768 C 24.94,1.768 1.704,23.139 1.704,66.804 L 1.704,516.927 C 1.704,557.771 22.599,579.156 63.896,579.156 L 515.92,579.156 C 557.227,579.156 578.149,558.841 578.149,516.927 L 578.149,66.804 C 578.149,24.203 557.227,1.768 514.628,1.768 C 514.624,1.768 66.133,1.625 66.275,1.768 z "
       style="fill:#111;stroke:#eee;stroke-width:3.40799999"
       id="path1329" />
  </g>
  <path
     style="fill:#ffffff;fill-opacity:1;fill-rule:evenodd;stroke:#ffffff;stroke-width:33.62202835;stroke-linecap:butt;stroke-linejoin:miter;stroke-miterlimit:4;stroke-dasharray:none;stroke-opacity:1"
     d="m 53.019073,308.54295 0,234.15342"
     id="path2157"
     inkscape:connector-curvature="0"
     sodipodi:nodetypes="cc" />
  <path
     style="fill:#ffffff;fill-opacity:1;fill-rule:evenodd;stroke:#ffffff;stroke-width:33.62202835;stroke-linecap:butt;stroke-linejoin:miter;stroke-miterlimit:4;stroke-dasharray:none;stroke-opacity:1"
     d="m 65.522024,463.14031 450.295046,0"
     id="path2159"
     inkscape:connector-curvature="0"
     sodipodi:nodetypes="cc" />
  <path
     style="fill:#ffffff;fill-opacity:1;fill-rule:evenodd;stroke:#ffffff;stroke-width:33.62202835;stroke-linecap:butt;stroke-linejoin:miter;stroke-miterlimit:4;stroke-dasharray:none;stroke-opacity:1"
     d="m 530.32002,533.69047 0,-153.10032"
     id="path2161"
     inkscape:connector-curvature="0"
     sodipodi:nodetypes="cc" />
  <rect
     style="fill:#ffffff;fill-opacity:1;stroke:#ffffff;stroke-width:35.45034027;stroke-miterlimit:4;stroke-dasharray:none;stroke-opacity:1"
     id="rect2163"
     width="217.4361"
     height="38.532982"
     x="252.01743"
     y="366.4057"
     ry="19.266491" />
  <ellipse
     style="fill:#ffffff;fill-opacity:1;stroke:#ffffff;stroke-width:49.7136116;stroke-miterlimit:4;stroke-dasharray:none;stroke-opacity:1"
     id="path2167"
     ry="29.76568"
     rx="30.916473"
     cy="302.01627"
     cx="161.16055" />
  <rect
     style="fill:#ffffff;fill-opacity:1;stroke:#ffffff;stroke-width:30.96105957;stroke-miterlimit:4;stroke-dasharray:none;stroke-opacity:1"
     id="rect2169"
     width="84.313599"
     height="6.9109507"
     x="113.6509"
     y="396.89206"
     ry="3.4554753" />
  <path
     style="font-size:12px;opacity:0.345;fill:#ffffff;fill-opacity:1;fill-rule:evenodd;stroke:#ffffff;stroke-width:1.06959641;stroke-opacity:1"
     d="M 294.85352,40.130859 86.109017,198.10742 l 59.107783,0 0,265.64258 0,7.5957 0,48.72657 189.61132,0 0,-48.72657 0.8711,0 0,48.72657 108.79297,0 0,-48.72657 0,-5.59961 0,-164.43945 0,-103.19922 59.10777,0 z"
     id="path645-0"
     inkscape:connector-curvature="0"
     sodipodi:nodetypes="ccccccccccccccccc" />
  <path
     inkscape:connector-curvature="0"
     style="fill:#ffffff;fill-opacity:1;stroke:none"
     d="m 381.98864,44.116216 c -36.78101,0 -66.42771,29.66059 -66.42771,66.441594 0,52.20531 118.64473,147.12169 118.64473,147.12169 0,0 118.64472,-94.91638 118.64472,-147.12169 0,-36.781004 -29.64671,-66.441594 -66.42771,-66.441594 -21.35672,0 -40.35217,10.68542 -52.21701,27.2962 -11.86484,-16.61078 -30.8603,-27.2962 -52.21702,-27.2962 z"
     id="path3"
     sodipodi:nodetypes="sscsscs" />
</svg>

<svg width="580" height="580" viewBox="0 0 580 580" fill="none" xmlns="http://www.w3.org/2000/svg">
<g clip-path="url(#clip0)">
<path d="M66.2751 1.76802C24.9401 1.76802 1.7041 23.139 1.7041 66.804V516.927C1.7041 557.771 22.5991 579.156 63.8961 579.156H515.92C557.227 579.156 578.149 558.841 578.149 516.927V66.804C578.149 24.203 557.227 1.76802 514.628 1.76802C514.624 1.76802 66.1331 1.62502 66.2751 1.76802Z" fill="#111111" stroke="#EEEEEE" stroke-width="3.408"/>
<path fill-rule="evenodd" clip-rule="evenodd" d="M53.019 308.543V542.696Z" fill="white"/>
<path d="M53.019 308.543V542.696" stroke="white" stroke-width="33.622"/>
<path fill-rule="evenodd" clip-rule="evenodd" d="M65.522 463.14H515.817Z" fill="white"/>
<path d="M65.522 463.14H515.817" stroke="white" stroke-width="33.622"/>
<path fill-rule="evenodd" clip-rule="evenodd" d="M530.32 533.69V380.59Z" fill="white"/>
<path d="M530.32 533.69V380.59" stroke="white" stroke-width="33.622"/>
<path d="M450.187 366.406H271.284C260.643 366.406 252.018 375.032 252.018 385.672C252.018 396.313 260.643 404.939 271.284 404.939H450.187C460.828 404.939 469.454 396.313 469.454 385.672C469.454 375.032 460.828 366.406 450.187 366.406Z" fill="white" stroke="white" stroke-width="35.4503"/>
<path d="M161.161 331.782C178.235 331.782 192.077 318.455 192.077 302.016C192.077 285.577 178.235 272.251 161.161 272.251C144.086 272.251 130.244 285.577 130.244 302.016C130.244 318.455 144.086 331.782 161.161 331.782Z" fill="white" stroke="white" stroke-width="49.7136"/>
<path d="M194.509 396.892H117.106C115.198 396.892 113.651 398.439 113.651 400.348C113.651 402.256 115.198 403.803 117.106 403.803H194.509C196.417 403.803 197.964 402.256 197.964 400.348C197.964 398.439 196.417 396.892 194.509 396.892Z" fill="white" stroke="white" stroke-width="30.9611"/>
<path opacity="0.345" fill-rule="evenodd" clip-rule="evenodd" d="M294.853 40.1309L86.1089 198.107H145.217V463.75V471.346V520.072H334.828V471.346H335.699V520.072H444.492V471.346V465.746V301.307V198.107H503.6L294.853 40.1309Z" fill="white" stroke="white" stroke-width="1.0696"/>
<path d="M381.989 44.1162C345.208 44.1162 315.561 73.7768 315.561 110.558C315.561 162.763 434.206 257.68 434.206 257.68C434.206 257.68 552.85 162.763 552.85 110.558C552.85 73.7768 523.204 44.1162 486.423 44.1162C465.066 44.1162 446.071 54.8016 434.206 71.4124C422.341 54.8016 403.345 44.1162 381.989 44.1162V44.1162Z" fill="white"/>
</g>
<defs>
<clipPath id="clip0">
<path d="M0 0H580V580H0V0Z" fill="white"/>
</clipPath>
</defs>
</svg>
